X:86
T:Doed a Ddel - Come what may
M:6/8
L:1/8
Q:120
C:Trad. arr. J.T.
R:Jig
N:A minor arrangement using low C natural.
K:G
E | A2 A AGA | AGA AGA | B2 B B2 B | BcA GFE | A2 A A
GA | AGA Bcd | cBA GFG | A3 A2 :||: E | EDC A2 A | F2 D DEF | EDC A2 c
| BGE E2 E | EDC A2 A | F3 d3 | cBA GFE | A3 A2 :||
